icons/redo.svg

<?xml version="1.0" standalone="no"?><!-- Generator: Gravit.io --><svg xmlns="http://www.w3.org/2000/svg" xmlns:xlink="http://www.w3.org/1999/xlink" width="96" height="96"><path d=" M 83.9968041645258 55.14738426752 L 83.9968041645258 40 C 83.9968041645258 38.9 84.3968041645258 37.9 85.1968041645258 37.2 C 85.8968041645258 36.4 86.8968041645258 36 87.9968041645258 36 C 89.09680416452579 36 90.09680416452579 36.4 90.7968041645258 37.2 C 91.59680416452579 37.9 91.9968041645258 38.9 91.9968041645258 40 L 91.9968041645258 62 C 91.9968041645258 63.6 91.3968041645258 65.1 90.1968041645258 66.2 C 89.09680416452579 67.4 87.59680416452579 68 85.9968041645258 68 L 63.9968041645258 68 C 62.8968041645258 68 61.8968041645258 67.6 61.1968041645258 66.8 C 60.3968041645258 66.1 59.9968041645258 65.1 59.9968041645258 64 C 59.9968041645258 62.9 60.3968041645258 61.9 61.1968041645258 61.2 C 61.8968041645258 60.4 62.8968041645258 60 63.9968041645258 60 L 77.68487171681579 60 C 75.42223693138189 56.976324682030715 73.00364251745977 54.04404037150943 70.3968041645258 51.3 C 67.6968041645258 48.4 64.6968041645258 45.7 61.4968041645258 43.4 C 58.0968041645258 41 54.3968041645258 39.1 50.4968041645258 37.7 C 47.0968041645258 36.6 43.5968041645258 36 39.9968041645258 36 C 36.5968041645258 36 33.1968041645258 36.7 30.096804164525793 38 C 27.1968041645258 39.2 24.4968041645258 41 22.396804164525804 43.3 C 20.1968041645258 45.6 18.296804164525795 48.2 16.896804164525804 51.1 C 14.796804164525795 55.5 13.096804164525793 60.2 11.896804164525804 65 C 11.596804164525793 66 10.996804164525798 66.9 10.096804164525793 67.4 C 9.096804164525793 68 8.096804164525793 68.1 6.996804164525798 67.9 C 5.996804164525798 67.6 5.096804164525793 67 4.596804164525793 66.1 C 3.9968041645257983 65.1 3.896804164525804 64.1 4.096804164525793 63 C 5.496804164525798 57.7 7.2968041645257955 52.5 9.796804164525795 47.6 C 11.496804164525798 44 13.796804164525795 40.7 16.596804164525793 37.8 C 19.4968041645258 34.7 23.096804164525793 32.2 26.9968041645258 30.6 C 31.096804164525793 28.9 35.5968041645258 28 39.9968041645258 28 C 44.3968041645258 28 48.8968041645258 28.7 53.0968041645258 30.2 C 57.6968041645258 31.8 62.0968041645258 34 66.1968041645258 36.9 C 69.7968041645258 39.5 73.1968041645258 42.5 76.2968041645258 45.9 C 79.01214308534475 48.818989339880375 81.58923702888406 51.9223053161336 83.9968041645258 55.14738426752 Z " fill="#454545" stroke="none"/><mask id="_mask_K7iYLFwOXnzphEOrTvW09tNF08yt9ru8"><path d=" M 83.9968041645258 55.14738426752 L 83.9968041645258 40 C 83.9968041645258 38.9 84.3968041645258 37.9 85.1968041645258 37.2 C 85.8968041645258 36.4 86.8968041645258 36 87.9968041645258 36 C 89.09680416452579 36 90.09680416452579 36.4 90.7968041645258 37.2 C 91.59680416452579 37.9 91.9968041645258 38.9 91.9968041645258 40 L 91.9968041645258 62 C 91.9968041645258 63.6 91.3968041645258 65.1 90.1968041645258 66.2 C 89.09680416452579 67.4 87.59680416452579 68 85.9968041645258 68 L 63.9968041645258 68 C 62.8968041645258 68 61.8968041645258 67.6 61.1968041645258 66.8 C 60.3968041645258 66.1 59.9968041645258 65.1 59.9968041645258 64 C 59.9968041645258 62.9 60.3968041645258 61.9 61.1968041645258 61.2 C 61.8968041645258 60.4 62.8968041645258 60 63.9968041645258 60 L 77.68487171681579 60 C 75.42223693138189 56.976324682030715 73.00364251745977 54.04404037150943 70.3968041645258 51.3 C 67.6968041645258 48.4 64.6968041645258 45.7 61.4968041645258 43.4 C 58.0968041645258 41 54.3968041645258 39.1 50.4968041645258 37.7 C 47.0968041645258 36.6 43.5968041645258 36 39.9968041645258 36 C 36.5968041645258 36 33.1968041645258 36.7 30.096804164525793 38 C 27.1968041645258 39.2 24.4968041645258 41 22.396804164525804 43.3 C 20.1968041645258 45.6 18.296804164525795 48.2 16.896804164525804 51.1 C 14.796804164525795 55.5 13.096804164525793 60.2 11.896804164525804 65 C 11.596804164525793 66 10.996804164525798 66.9 10.096804164525793 67.4 C 9.096804164525793 68 8.096804164525793 68.1 6.996804164525798 67.9 C 5.996804164525798 67.6 5.096804164525793 67 4.596804164525793 66.1 C 3.9968041645257983 65.1 3.896804164525804 64.1 4.096804164525793 63 C 5.496804164525798 57.7 7.2968041645257955 52.5 9.796804164525795 47.6 C 11.496804164525798 44 13.796804164525795 40.7 16.596804164525793 37.8 C 19.4968041645258 34.7 23.096804164525793 32.2 26.9968041645258 30.6 C 31.096804164525793 28.9 35.5968041645258 28 39.9968041645258 28 C 44.3968041645258 28 48.8968041645258 28.7 53.0968041645258 30.2 C 57.6968041645258 31.8 62.0968041645258 34 66.1968041645258 36.9 C 69.7968041645258 39.5 73.1968041645258 42.5 76.2968041645258 45.9 C 79.01214308534475 48.818989339880375 81.58923702888406 51.9223053161336 83.9968041645258 55.14738426752 Z " fill="white" stroke="none"/></mask><path d=" M 83.9968041645258 55.14738426752 L 83.9968041645258 40 C 83.9968041645258 38.9 84.3968041645258 37.9 85.1968041645258 37.2 C 85.8968041645258 36.4 86.8968041645258 36 87.9968041645258 36 C 89.09680416452579 36 90.09680416452579 36.4 90.7968041645258 37.2 C 91.59680416452579 37.9 91.9968041645258 38.9 91.9968041645258 40 L 91.9968041645258 62 C 91.9968041645258 63.6 91.3968041645258 65.1 90.1968041645258 66.2 C 89.09680416452579 67.4 87.59680416452579 68 85.9968041645258 68 L 63.9968041645258 68 C 62.8968041645258 68 61.8968041645258 67.6 61.1968041645258 66.8 C 60.3968041645258 66.1 59.9968041645258 65.1 59.9968041645258 64 C 59.9968041645258 62.9 60.3968041645258 61.9 61.1968041645258 61.2 C 61.8968041645258 60.4 62.8968041645258 60 63.9968041645258 60 L 77.68487171681579 60 C 75.42223693138189 56.976324682030715 73.00364251745977 54.04404037150943 70.3968041645258 51.3 C 67.6968041645258 48.4 64.6968041645258 45.7 61.4968041645258 43.4 C 58.0968041645258 41 54.3968041645258 39.1 50.4968041645258 37.7 C 47.0968041645258 36.6 43.5968041645258 36 39.9968041645258 36 C 36.5968041645258 36 33.1968041645258 36.7 30.096804164525793 38 C 27.1968041645258 39.2 24.4968041645258 41 22.396804164525804 43.3 C 20.1968041645258 45.6 18.296804164525795 48.2 16.896804164525804 51.1 C 14.796804164525795 55.5 13.096804164525793 60.2 11.896804164525804 65 C 11.596804164525793 66 10.996804164525798 66.9 10.096804164525793 67.4 C 9.096804164525793 68 8.096804164525793 68.1 6.996804164525798 67.9 C 5.996804164525798 67.6 5.096804164525793 67 4.596804164525793 66.1 C 3.9968041645257983 65.1 3.896804164525804 64.1 4.096804164525793 63 C 5.496804164525798 57.7 7.2968041645257955 52.5 9.796804164525795 47.6 C 11.496804164525798 44 13.796804164525795 40.7 16.596804164525793 37.8 C 19.4968041645258 34.7 23.096804164525793 32.2 26.9968041645258 30.6 C 31.096804164525793 28.9 35.5968041645258 28 39.9968041645258 28 C 44.3968041645258 28 48.8968041645258 28.7 53.0968041645258 30.2 C 57.6968041645258 31.8 62.0968041645258 34 66.1968041645258 36.9 C 69.7968041645258 39.5 73.1968041645258 42.5 76.2968041645258 45.9 C 79.01214308534475 48.818989339880375 81.58923702888406 51.9223053161336 83.9968041645258 55.14738426752 Z " fill="none" stroke="none" stroke-width="16" mask="url(#_mask_K7iYLFwOXnzphEOrTvW09tNF08yt9ru8)"/></svg>

<svg xmlns="http://www.w3.org/2000/svg" width="96" height="96"><path d="M83.997 55.147V40c0-1.1.4-2.1 1.2-2.8.7-.8 1.7-1.2 2.8-1.2 1.1 0 2.1.4 2.8 1.2.8.7 1.2 1.7 1.2 2.8v22c0 1.6-.6 3.1-1.8 4.2-1.1 1.2-2.6 1.8-4.2 1.8h-22c-1.1 0-2.1-.4-2.8-1.2-.8-.7-1.2-1.7-1.2-2.8 0-1.1.4-2.1 1.2-2.8.7-.8 1.7-1.2 2.8-1.2h13.688c-2.263-3.024-4.681-5.956-7.288-8.7-2.7-2.9-5.7-5.6-8.9-7.9-3.4-2.4-7.1-4.3-11-5.7-3.4-1.1-6.9-1.7-10.5-1.7-3.4 0-6.8.7-9.9 2-2.9 1.2-5.6 3-7.7 5.3-2.2 2.3-4.1 4.9-5.5 7.8-2.1 4.4-3.8 9.1-5 13.9-.3 1-.9 1.9-1.8 2.4-1 .6-2 .7-3.1.5-1-.3-1.9-.9-2.4-1.8-.6-1-.7-2-.5-3.1 1.4-5.3 3.2-10.5 5.7-15.4 1.7-3.6 4-6.9 6.8-9.8 2.9-3.1 6.5-5.6 10.4-7.2 4.1-1.7 8.6-2.6 13-2.6s8.9.7 13.1 2.2c4.6 1.6 9 3.8 13.1 6.7 3.6 2.6 7 5.6 10.1 9a111.715 111.715 0 0 1 7.7 9.247z" fill="#454545"/></svg>
